build/assets/images/content/rotor.svg

<svg width="293" height="293" fill="none" xmlns="http://www.w3.org/2000/svg"><g clip-path="url(#clip0_3_2)" fill="#333"><path d="M146.345 0C65.65 0 0 65.648 0 146.341c0 80.694 65.65 146.345 146.345 146.345 80.692 0 146.341-65.65 146.341-146.345C292.686 65.648 227.037 0 146.345 0zm95.614 175.138l16.343 2.878a115.3 115.3 0 01-5.279 14.721L238.57 184.4c-5.98-3.45-13.625-1.397-17.074 4.582-3.449 5.98-1.397 13.624 4.582 17.074l14.535 8.384a117.347 117.347 0 01-10.038 12.076l-10.851-12.918c-4.439-5.284-12.324-5.972-17.611-1.531-5.286 4.44-5.972 12.325-1.531 17.611l10.921 13.002c-4.34 2.945-8.893 5.6-13.623 7.947l-5.841-16.034c-2.363-6.488-9.537-9.831-16.023-7.467-6.487 2.363-9.83 9.537-7.467 16.023l5.867 16.104a115.552 115.552 0 01-15.575 2.759v-17.16c0-6.903-5.597-12.5-12.5-12.5s-12.5 5.597-12.5 12.5v17.158a115.62 115.62 0 01-15.567-2.758l5.858-16.076c2.363-6.486-.979-13.66-7.466-16.024-6.485-2.366-13.661.979-16.024 7.466l-5.833 16.008c-4.73-2.347-9.281-5-13.621-7.945l10.903-12.984c4.439-5.287 3.753-13.171-1.534-17.61-5.287-4.441-13.172-3.753-17.61 1.534L62.116 226.52a117.26 117.26 0 01-10.04-12.076l14.517-8.375c5.981-3.449 8.031-11.094 4.581-17.073-3.449-5.98-11.096-8.031-17.073-4.581l-14.435 8.328a115.398 115.398 0 01-5.282-14.727l16.33-2.873c6.799-1.195 11.341-7.678 10.145-14.477-1.196-6.799-7.673-11.339-14.476-10.145l-16.163 2.844c-.141-2.325-.22-4.665-.22-7.024 0-2.867.109-5.709.314-8.526l16.058 2.837c.735.13 1.468.192 2.189.192 5.95 0 11.224-4.265 12.295-10.327 1.201-6.798-3.337-13.283-10.135-14.484l-15.911-2.811a115.438 115.438 0 015.386-14.493l13.887 8.026a12.495 12.495 0 0017.077-4.567c3.455-5.978 1.409-13.623-4.567-17.077l-13.737-7.939a117.25 117.25 0 019.945-11.711l10.132 12.08a12.475 12.475 0 009.584 4.468c2.834 0 5.685-.959 8.025-2.923 5.29-4.437 5.981-12.32 1.545-17.609l-10.08-12.019a116.43 116.43 0 0113.271-7.633l5.355 14.713c1.848 5.076 6.641 8.228 11.747 8.228 1.419 0 2.863-.243 4.274-.757 6.487-2.361 9.832-9.534 7.471-16.021l-5.342-14.679a115.864 115.864 0 0115.059-2.634v15.601c0 6.903 5.597 12.5 12.5 12.5s12.5-5.597 12.5-12.5V30.673a115.575 115.575 0 0115.075 2.637l-5.349 14.694c-2.361 6.487.983 13.66 7.471 16.021 1.411.514 2.855.757 4.275.757 5.105 0 9.899-3.151 11.747-8.228l5.361-14.726a116.476 116.476 0 0113.268 7.633l-10.091 12.026c-4.438 5.289-3.748 13.173 1.54 17.61a12.447 12.447 0 008.028 2.925c3.567 0 7.11-1.519 9.582-4.465l10.146-12.091a117.308 117.308 0 019.941 11.708l-13.748 7.936c-5.98 3.452-8.028 11.097-4.577 17.075a12.497 12.497 0 0017.075 4.577l13.909-8.029a115.386 115.386 0 015.384 14.49l-15.922 2.809c-6.799 1.199-11.338 7.683-10.138 14.481 1.069 6.064 6.344 10.33 12.295 10.33.721 0 1.452-.063 2.186-.192l16.074-2.836c.205 2.815.314 5.658.314 8.524 0 2.359-.079 4.699-.218 7.023l-16.174-2.848c-6.789-1.198-13.281 3.343-14.477 10.144-1.201 6.801 3.34 13.283 10.14 14.48z"/><path d="M146.345 82.05c-35.452 0-64.295 28.841-64.295 64.291 0 35.452 28.843 64.295 64.295 64.295 35.45 0 64.291-28.843 64.291-64.295 0-35.45-28.841-64.291-64.291-64.291zm0 98.586c-18.91 0-34.295-15.385-34.295-34.295 0-18.908 15.385-34.291 34.295-34.291 18.908 0 34.291 15.383 34.291 34.291 0 18.91-15.383 34.295-34.291 34.295z"/></g><defs><clipPath id="clip0_3_2"><path fill="#fff" d="M0 0h292.686v292.686H0z"/></clipPath></defs></svg>

<svg width="293" height="293" viewBox="0 0 293 293" fill="none" xmlns="http://www.w3.org/2000/svg">
<g clip-path="url(#clip0_3_2)">
<path d="M146.345 0C65.65 0 0 65.648 0 146.341C0 227.035 65.65 292.686 146.345 292.686C227.037 292.686 292.686 227.036 292.686 146.341C292.686 65.648 227.037 0 146.345 0ZM241.959 175.138L258.302 178.016C256.87 183.072 255.098 187.985 253.023 192.737L238.57 184.4C232.59 180.95 224.945 183.003 221.496 188.982C218.047 194.962 220.099 202.606 226.078 206.056L240.613 214.44C237.536 218.688 234.184 222.725 230.575 226.516L219.724 213.598C215.285 208.314 207.4 207.626 202.113 212.067C196.827 216.507 196.141 224.392 200.582 229.678L211.503 242.68C207.163 245.625 202.61 248.28 197.88 250.627L192.039 234.593C189.676 228.105 182.502 224.762 176.016 227.126C169.529 229.489 166.186 236.663 168.549 243.149L174.416 259.253C169.346 260.514 164.147 261.443 158.841 262.012V244.852C158.841 237.949 153.244 232.352 146.341 232.352C139.438 232.352 133.841 237.949 133.841 244.852V262.01C128.538 261.441 123.342 260.512 118.274 259.252L124.132 243.176C126.495 236.69 123.153 229.516 116.666 227.152C110.181 224.786 103.005 228.131 100.642 234.618L94.809 250.626C90.079 248.279 85.528 245.626 81.188 242.681L92.091 229.697C96.53 224.41 95.844 216.526 90.557 212.087C85.27 207.646 77.385 208.334 72.947 213.621L62.116 226.52C58.506 222.73 55.154 218.692 52.076 214.444L66.593 206.069C72.574 202.62 74.624 194.975 71.174 188.996C67.725 183.016 60.078 180.965 54.101 184.415L39.666 192.743C37.59 187.989 35.817 183.074 34.384 178.016L50.714 175.143C57.513 173.948 62.055 167.465 60.859 160.666C59.663 153.867 53.186 149.327 46.383 150.521L30.22 153.365C30.079 151.04 30 148.7 30 146.341C30 143.474 30.109 140.632 30.314 137.815L46.372 140.652C47.107 140.782 47.84 140.844 48.561 140.844C54.511 140.844 59.785 136.579 60.856 130.517C62.057 123.719 57.519 117.234 50.721 116.033L34.81 113.222C36.291 108.245 38.09 103.404 40.196 98.729L54.083 106.755C56.054 107.894 58.203 108.435 60.326 108.435C64.643 108.435 68.845 106.195 71.16 102.188C74.615 96.21 72.569 88.565 66.593 85.111L52.856 77.172C55.913 73.051 59.238 69.14 62.801 65.461L72.933 77.541C75.406 80.489 78.949 82.009 82.517 82.009C85.351 82.009 88.202 81.05 90.542 79.086C95.832 74.649 96.523 66.766 92.087 61.477L82.007 49.458C86.244 46.635 90.676 44.083 95.278 41.825L100.633 56.538C102.481 61.614 107.274 64.766 112.38 64.766C113.799 64.766 115.243 64.523 116.654 64.009C123.141 61.648 126.486 54.475 124.125 47.988L118.783 33.309C123.69 32.113 128.716 31.226 133.842 30.675V46.276C133.842 53.179 139.439 58.776 146.342 58.776C153.245 58.776 158.842 53.179 158.842 46.276V30.673C163.974 31.224 169.005 32.111 173.917 33.31L168.568 48.004C166.207 54.491 169.551 61.664 176.039 64.025C177.45 64.539 178.894 64.782 180.314 64.782C185.419 64.782 190.213 61.631 192.061 56.554L197.422 41.828C202.023 44.086 206.453 46.638 210.69 49.461L200.599 61.487C196.161 66.776 196.851 74.66 202.139 79.097C204.482 81.063 207.332 82.022 210.167 82.022C213.734 82.022 217.277 80.503 219.749 77.557L229.895 65.466C233.457 69.144 236.779 73.054 239.836 77.174L226.088 85.11C220.108 88.562 218.06 96.207 221.511 102.185C223.827 106.196 228.029 108.438 232.349 108.438C234.469 108.438 236.619 107.898 238.586 106.762L252.495 98.733C254.6 103.407 256.399 108.247 257.879 113.223L241.957 116.032C235.158 117.231 230.619 123.715 231.819 130.513C232.888 136.577 238.163 140.843 244.114 140.843C244.835 140.843 245.566 140.78 246.3 140.651L262.374 137.815C262.579 140.63 262.688 143.473 262.688 146.339C262.688 148.698 262.609 151.038 262.47 153.362L246.296 150.514C239.507 149.316 233.015 153.857 231.819 160.658C230.618 167.459 235.159 173.941 241.959 175.138Z" fill="#333333"/>
<path d="M146.345 82.05C110.893 82.05 82.05 110.891 82.05 146.341C82.05 181.793 110.893 210.636 146.345 210.636C181.795 210.636 210.636 181.793 210.636 146.341C210.636 110.891 181.795 82.05 146.345 82.05ZM146.345 180.636C127.435 180.636 112.05 165.251 112.05 146.341C112.05 127.433 127.435 112.05 146.345 112.05C165.253 112.05 180.636 127.433 180.636 146.341C180.636 165.251 165.253 180.636 146.345 180.636Z" fill="#333333"/>
</g>
<defs>
<clipPath id="clip0_3_2">
<rect width="292.686" height="292.686" fill="white"/>
</clipPath>
</defs>
</svg>
